; generated by PrusaSlicer 2.9.2 on 2025-07-15 at 15:32:06 UTC


;
;
; 

; external perimeters extrusion width = 0.45mm
; perimeters extrusion width = 0.45mm
; infill extrusion width = 0.45mm
; solid infill extrusion width = 0.45mm
; top infill extrusion width = 0.40mm
; first layer extrusion width = 0.42mm

M73 P0 R20
M73 C10
M73 Q0 S20
M73 D10
M201 X1000 Y1000 Z200 E5000 ; sets maximum accelerations, mm/sec^2
M203 X200 Y200 Z12 E120 ; sets maximum feedrates, mm / sec
M204 S1250 T1250 ; sets acceleration (S) and retract acceleration (R), mm/sec^2
M205 X8.00 Y8.00 Z0.40 E4.50 ; sets the jerk limits, mm/sec
M205 S0 T0 ; sets the minimum extruding and travel feed rate, mm/sec

; printing object Untitled v1.stl id:0 copy 0
; stop printing object Untitled v1.stl id:0 copy 0

;TYPE:Custom
M862.3 P "MK3S" ; printer model check
M862.1 P0.4 ; nozzle diameter check
M115 U3.14.1 ; tell printer latest fw version
G90 ; use absolute coordinates
M83 ; extruder relative mode
M104 S215 ; set extruder temp
M140 S60 ; set bed temp
M190 S60 ; wait for bed temp
M109 S215 ; wait for extruder temp
G28 W ; home all without mesh bed level
G80 X79.8729 Y85.1229 W40.2542 H29.7542 ; mesh bed levelling

G1 Z0.2 F720
G1 Y-3 F1000 ; go outside print area
G92 E0
G1 X60 E9 F1000 ; intro line
G1 X100 E12.5 F1000 ; intro line

G92 E0
M221 S95

; Don't change E values below. Excessive value can damage the printer.
M907 E430 ; set extruder motor current
G21 ; set units to millimeters
G90 ; use absolute coordinates
M83 ; use relative distances for extrusion

M900 K0.05 ; Filament gcode LA 1.5
M900 K30 ; Filament gcode LA 1.0




M107
;LAYER_CHANGE
;Z:0.2
;HEIGHT:0.2
G1 E-.8 F2100
G1 Z.6 F720
G1 X80.452 Y86.252 F10800
G1 Z.2 F720
G1 E.8 F2100
M204 S800
;TYPE:Skirt/Brim
;WIDTH:0.42
G1 F1200
G1 X81.485 Y85.449 E.04102
G1 X82.25 Y85.311 E.02437
G1 X117.75 Y85.311 E1.11308
G1 X118.998 Y85.702 E.04101
G1 X119.801 Y86.735 E.04102
G1 X119.939 Y87.5 E.02437
G1 X119.939 Y112.5 E.78386
G1 X119.548 Y113.748 E.04101
G1 X118.515 Y114.551 E.04102
G1 X117.75 Y114.689 E.02437
G1 X82.25 Y114.689 E1.11308
G1 X81.002 Y114.298 E.04101
M73 P1 R20
M73 Q1 S20
G1 X80.199 Y113.265 E.04102
G1 X80.061 Y112.5 E.02437
G1 X80.061 Y87.5 E.78386
G1 X80.434 Y86.309 E.03913
M204 S1000
;WIPE_START
G1 F8640
G1 X80.452 Y86.252 E-.0138
G1 X81.485 Y85.449 E-.30211
G1 X82.25 Y85.311 E-.17949
G1 X83.569 Y85.311 E-.3046
;WIPE_END
G1 Z.6 F720
; printing object Untitled v1.stl id:0 copy 0
G1 X103.037 Y111.713 F10800
G1 Z.2 F720
G1 E.8 F2100
M204 S800
;TYPE:Perimeter
;WIDTH:0.419999
G1 F1200
G1 X103.037 Y88.287 E.7345
G1 X116.963 Y88.287 E.43664
G1 X116.963 Y95.25 E.21832
G1 X116.963 Y111.713 E.51618
G1 X103.097 Y111.713 E.43476
M73 C9
M204 S1000
G1 X102.66 Y112.09 F10800
M204 S800
;TYPE:External perimeter
G1 F1200
G1 X102.66 Y87.91 E.75815
G1 X117.34 Y87.91 E.46028
M73 D9
G1 X117.34 Y95.25 E.23014
G1 X117.34 Y112.09 E.52801
G1 X102.72 Y112.09 E.4584
M204 S1000
;WIPE_START
G1 F8640
G1 X102.66 Y112.09 E-.01385
G1 X102.66 Y108.685 E-.78615
;WIPE_END
G1 Z.6 F720
G1 X116.02 Y88.457 F10800
G1 Z.2 F720
G1 E.8 F2100
M204 S800
;TYPE:Solid infill
;WIDTH:0.425052
G1 F1200
G1 X116.624 Y89.06 E.02712
G1 X116.624 Y89.6 E.01716
G1 X115.65 Y88.626 E.04377
G1 X115.109 Y88.626 E.01719
G1 X116.624 Y90.141 E.06808
G1 X116.624 Y90.681 E.01716
G1 X114.569 Y88.626 E.09234
G1 X114.028 Y88.626 E.01719
G1 X116.624 Y91.222 E.11665
G1 X116.624 Y91.762 E.01716
G1 X113.488 Y88.626 E.14092
G1 X112.947 Y88.626 E.01719
G1 X116.624 Y92.303 E.16523
G1 X116.624 Y92.843 E.01716
G1 X112.407 Y88.626 E.18949
G1 X111.867 Y88.626 E.01716
M73 Q2 S20
G1 X116.624 Y93.383 E.21376
G1 X116.624 Y93.924 E.01719
M73 P2 R20
G1 X111.326 Y88.626 E.23807
G1 X110.786 Y88.626 E.01716
G1 X116.624 Y94.464 E.26234
G1 X116.624 Y95.005 E.01719
G1 X110.245 Y88.626 E.28665
G1 X109.705 Y88.626 E.01716
G1 X116.624 Y95.545 E.31091
G1 X116.624 Y96.085 E.01716
G1 X109.165 Y88.626 E.33518
G1 X108.624 Y88.626 E.01719
G1 X116.624 Y96.626 E.35949
G1 X116.624 Y97.166 E.01716
G1 X108.084 Y88.626 E.38375
G1 X107.543 Y88.626 E.01719
G1 X116.624 Y97.707 E.40806
G1 X116.624 Y98.247 E.01716
G1 X107.003 Y88.626 E.43233
G1 X106.462 Y88.626 E.01719
G1 X116.624 Y98.788 E.45664
G1 X116.624 Y99.328 E.01716
G1 X105.922 Y88.626 E.4809
G1 X105.382 Y88.626 E.01716
G1 X116.624 Y99.868 E.50517
G1 X116.624 Y100.409 E.01719
G1 X104.841 Y88.626 E.52948
G1 X104.301 Y88.626 E.01716
G1 X116.624 Y100.949 E.55374
G1 X116.624 Y101.49 E.01719
G1 X103.76 Y88.626 E.57805
G1 X103.376 Y88.626 E.0122
G1 X103.376 Y88.783 E.00499
G1 X116.624 Y102.03 E.59529
G1 X116.624 Y102.57 E.01716
M73 P2 R19
G1 X103.376 Y89.323 E.59529
G1 X103.376 Y89.864 E.01719
M73 P3 R19
M73 Q3 S20
G1 X116.624 Y103.111 E.59529
G1 X116.624 Y103.651 E.01716
G1 X103.376 Y90.404 E.59529
G1 X103.376 Y90.945 E.01719
M73 Q3 S19
G1 X116.624 Y104.192 E.59529
G1 X116.624 Y104.732 E.01716
G1 X103.376 Y91.485 E.59529
G1 X103.376 Y92.025 E.01716
G1 X116.624 Y105.273 E.59531
G1 X116.624 Y105.813 E.01716
G1 X103.376 Y92.566 E.59529
G1 X103.376 Y93.106 E.01716
G1 X116.624 Y106.353 E.59529
G1 X116.624 Y106.894 E.01719
G1 X103.376 Y93.647 E.59529
G1 X103.376 Y94.187 E.01716
G1 X116.624 Y107.434 E.59529
G1 X116.624 Y107.975 E.01719
G1 X103.376 Y94.728 E.59529
G1 X103.376 Y95.268 E.01716
G1 X116.624 Y108.515 E.59529
G1 X116.624 Y109.055 E.01716
G1 X103.376 Y95.808 E.59529
G1 X103.376 Y96.349 E.01719
G1 X116.624 Y109.596 E.59529
G1 X116.624 Y110.136 E.01716
M73 P4 R19
M73 Q4 S19
G1 X103.376 Y96.889 E.59529
G1 X103.376 Y97.43 E.01719
G1 X116.624 Y110.677 E.59529
G1 X116.624 Y111.217 E.01716
G1 X103.376 Y97.97 E.59529
G1 X103.376 Y98.51 E.01716
G1 X116.24 Y111.374 E.57805
G1 X115.699 Y111.374 E.01719
G1 X103.376 Y99.051 E.55374
G1 X103.376 Y99.591 E.01716
G1 X115.159 Y111.374 E.52948
G1 X114.618 Y111.374 E.01719
G1 X103.376 Y100.132 E.50517
G1 X103.376 Y100.672 E.01716
G1 X114.078 Y111.374 E.4809
G1 X113.538 Y111.374 E.01716
G1 X103.376 Y101.213 E.45662
G1 X103.376 Y101.753 E.01716
G1 X112.997 Y111.374 E.43233
G1 X112.457 Y111.374 E.01716
G1 X103.376 Y102.293 E.40806
G1 X103.376 Y102.834 E.01719
G1 X111.916 Y111.374 E.38375
G1 X111.376 Y111.374 E.01716
G1 X103.376 Y103.374 E.35949
G1 X103.376 Y103.915 E.01719
G1 X110.835 Y111.374 E.33518
G1 X110.295 Y111.374 E.01716
G1 X103.376 Y104.455 E.31091
G1 X103.376 Y104.995 E.01716
M73 Q5 S19
G1 X109.755 Y111.374 E.28665
G1 X109.214 Y111.374 E.01719
M73 P5 R19
G1 X103.376 Y105.536 E.26234
G1 X103.376 Y106.076 E.01716
G1 X108.674 Y111.374 E.23807
G1 X108.133 Y111.374 E.01719
G1 X103.376 Y106.617 E.21376
G1 X103.376 Y107.157 E.01716
G1 X107.593 Y111.374 E.18949
G1 X107.053 Y111.374 E.01716
G1 X103.376 Y107.697 E.16523
G1 X103.376 Y108.238 E.01719
G1 X106.512 Y111.374 E.14092
G1 X105.972 Y111.374 E.01716
G1 X103.376 Y108.778 E.11665
G1 X103.376 Y109.319 E.01719
G1 X105.431 Y111.374 E.09234
G1 X104.891 Y111.374 E.01716
G1 X103.376 Y109.859 E.06808
G1 X103.376 Y110.4 E.01719
G1 X104.35 Y111.374 E.04377
G1 X103.81 Y111.374 E.01716
G1 X103.207 Y110.77 E.02712
M204 S1000
;WIPE_START
G1 F8640
G1 X103.81 Y111.374 E-.19707
G1 X104.35 Y111.374 E-.12469
G1 X103.376 Y110.4 E-.31806
G1 X103.376 Y109.859 E-.12492
G1 X103.484 Y109.967 E-.03526
;WIPE_END
G1 Z.6 F720
G1 X96.963 Y111.713 F10800
G1 Z.2 F720
G1 E.8 F2100
M204 S800
;TYPE:Perimeter
;WIDTH:0.419999
G1 F1200
G1 X83.037 Y111.713 E.43664
G1 X83.037 Y88.287 E.7345
G1 X96.963 Y88.287 E.43664
G1 X96.963 Y95.25 E.21832
G1 X96.963 Y111.653 E.5143
M204 S1000
G1 X97.34 Y112.09 F10800
M204 S800
;TYPE:External perimeter
G1 F1200
G1 X82.66 Y112.09 E.46028
G1 X82.66 Y87.91 E.75815
G1 X97.34 Y87.91 E.46028
G1 X97.34 Y95.25 E.23014
G1 X97.34 Y112.03 E.52612
M204 S1000
;WIPE_START
G1 F8640
G1 X97.34 Y112.09 E-.01385
G1 X93.935 Y112.09 E-.78615
;WIPE_END
G1 Z.6 F720
G1 X96.02 Y88.457 F10800
G1 Z.2 F720
G1 E.8 F2100
M204 S800
;TYPE:Solid infill
;WIDTH:0.425052
G1 F1200
G1 X96.624 Y89.06 E.02712
G1 X96.624 Y89.6 E.01716
G1 X95.65 Y88.626 E.04377
G1 X95.109 Y88.626 E.01719
M73 Q6 S19
G1 X96.624 Y90.141 E.06808
G1 X96.624 Y90.681 E.01716
M73 P6 R19
G1 X94.569 Y88.626 E.09234
G1 X94.028 Y88.626 E.01719
G1 X96.624 Y91.222 E.11665
G1 X96.624 Y91.762 E.01716
G1 X93.488 Y88.626 E.14092
G1 X92.947 Y88.626 E.01719
G1 X96.624 Y92.303 E.16523
G1 X96.624 Y92.843 E.01716
G1 X92.407 Y88.626 E.18949
G1 X91.867 Y88.626 E.01716
G1 X96.624 Y93.383 E.21376
G1 X96.624 Y93.924 E.01719
G1 X91.326 Y88.626 E.23807
G1 X90.786 Y88.626 E.01716
G1 X96.624 Y94.464 E.26234
G1 X96.624 Y95.005 E.01719
G1 X90.245 Y88.626 E.28665
G1 X89.705 Y88.626 E.01716
M73 C8
G1 X96.624 Y95.545 E.31091
G1 X96.624 Y96.085 E.01716
G1 X89.165 Y88.626 E.33518
G1 X88.624 Y88.626 E.01719
G1 X96.624 Y96.626 E.35949
G1 X96.624 Y97.166 E.01716
M73 D8
G1 X88.084 Y88.626 E.38375
G1 X87.543 Y88.626 E.01719
G1 X96.624 Y97.707 E.40806
G1 X96.624 Y98.247 E.01716
G1 X87.003 Y88.626 E.43233
G1 X86.462 Y88.626 E.01719
G1 X96.624 Y98.788 E.45664
G1 X96.624 Y99.328 E.01716
G1 X85.922 Y88.626 E.4809
G1 X85.382 Y88.626 E.01716
G1 X96.624 Y99.868 E.50517
G1 X96.624 Y100.409 E.01719
G1 X84.841 Y88.626 E.52948
G1 X84.301 Y88.626 E.01716
G1 X96.624 Y100.949 E.55374
G1 X96.624 Y101.49 E.01719
G1 X83.76 Y88.626 E.57805
G1 X83.376 Y88.626 E.0122
G1 X83.376 Y88.783 E.00499
G1 X96.624 Y102.03 E.59529
G1 X96.624 Y102.57 E.01716
M73 P7 R19
M73 Q7 S19
G1 X83.376 Y89.323 E.59529
G1 X83.376 Y89.864 E.01719
G1 X96.624 Y103.111 E.59529
G1 X96.624 Y103.651 E.01716
G1 X83.376 Y90.404 E.59529
G1 X83.376 Y90.945 E.01719
G1 X96.624 Y104.192 E.59529
G1 X96.624 Y104.732 E.01716
G1 X83.376 Y91.485 E.59529
G1 X83.376 Y92.025 E.01716
G1 X96.624 Y105.273 E.59531
G1 X96.624 Y105.813 E.01716
G1 X83.376 Y92.566 E.59529
G1 X83.376 Y93.106 E.01716
G1 X96.624 Y106.353 E.59529
G1 X96.624 Y106.894 E.01719
G1 X83.376 Y93.647 E.59529
G1 X83.376 Y94.187 E.01716
G1 X96.624 Y107.434 E.59529
G1 X96.624 Y107.975 E.01719
M73 P7 R18
G1 X83.376 Y94.728 E.59529
G1 X83.376 Y95.268 E.01716
G1 X96.624 Y108.515 E.59529
G1 X96.624 Y109.055 E.01716
M73 Q8 S19
G1 X83.376 Y95.808 E.59529
G1 X83.376 Y96.349 E.01719
M73 P8 R18
M73 Q8 S18
G1 X96.624 Y109.596 E.59529
G1 X96.624 Y110.136 E.01716
G1 X83.376 Y96.889 E.59529
G1 X83.376 Y97.43 E.01719
G1 X96.624 Y110.677 E.59529
G1 X96.624 Y111.217 E.01716
G1 X83.376 Y97.97 E.59529
G1 X83.376 Y98.51 E.01716
G1 X96.24 Y111.374 E.57805
G1 X95.699 Y111.374 E.01719
G1 X83.376 Y99.051 E.55374
G1 X83.376 Y99.591 E.01716
G1 X95.159 Y111.374 E.52948
G1 X94.618 Y111.374 E.01719
G1 X83.376 Y100.132 E.50517
G1 X83.376 Y100.672 E.01716
G1 X94.078 Y111.374 E.4809
G1 X93.538 Y111.374 E.01716
G1 X83.376 Y101.212 E.45664
G1 X83.376 Y101.753 E.01719
G1 X92.997 Y111.374 E.43233
G1 X92.457 Y111.374 E.01716
G1 X83.376 Y102.293 E.40806
G1 X83.376 Y102.834 E.01719
G1 X91.916 Y111.374 E.38375
G1 X91.376 Y111.374 E.01716
G1 X83.376 Y103.374 E.35949
G1 X83.376 Y103.915 E.01719
M73 P9 R18
M73 Q9 S18
G1 X90.835 Y111.374 E.33518
G1 X90.295 Y111.374 E.01716
G1 X83.376 Y104.455 E.31091
G1 X83.376 Y104.995 E.01716
G1 X89.755 Y111.374 E.28665
G1 X89.214 Y111.374 E.01719
G1 X83.376 Y105.536 E.26234
G1 X83.376 Y106.076 E.01716
G1 X88.674 Y111.374 E.23807
G1 X88.133 Y111.374 E.01719
G1 X83.376 Y106.617 E.21376
G1 X83.376 Y107.157 E.01716
G1 X87.593 Y111.374 E.18949
G1 X87.053 Y111.374 E.01716
G1 X83.376 Y107.697 E.16523
G1 X83.376 Y108.238 E.01719
G1 X86.512 Y111.374 E.14092
G1 X85.972 Y111.374 E.01716
G1 X83.376 Y108.778 E.11665
G1 X83.376 Y109.319 E.01719
G1 X85.431 Y111.374 E.09234
G1 X84.891 Y111.374 E.01716
G1 X83.376 Y109.859 E.06808
G1 X83.376 Y110.4 E.01719
G1 X84.35 Y111.374 E.04377
G1 X83.81 Y111.374 E.01716
G1 X83.207 Y110.77 E.02712
M204 S1000
M106 S84.15
;LAYER_CHANGE
;Z:0.4
;HEIGHT:0.2
;BEFORE_LAYER_CHANGE
G92 E0.0
;0.4


;WIPE_START
G1 F8640
G1 X83.81 Y111.374 E-.19707
G1 X84.35 Y111.374 E-.12469
G1 X83.376 Y110.4 E-.31806
G1 X83.376 Y109.859 E-.12492
G1 X83.484 Y109.967 E-.03526
;WIPE_END
G1 Z.4 F720
;AFTER_LAYER_CHANGE
;0.4
M104 S210 ; set temperature
; stop printing object Untitled v1.stl id:0 copy 0
G1 Z.8
G1 X80.061 Y110.77 F10800
G1 Z.4 F720
G1 E.8 F2100
;TYPE:Skirt/Brim
;WIDTH:0.42
G1 F3000
G1 X80.061 Y87.5 E.72961
G1 X80.452 Y86.252 E.04101
G1 X81.485 Y85.449 E.04102
G1 X82.25 Y85.311 E.02437
G1 X117.75 Y85.311 E1.11308
G1 X118.998 Y85.702 E.04101
G1 X119.801 Y86.735 E.04102
G1 X119.939 Y87.5 E.02437
G1 X119.939 Y112.5 E.78386
G1 X119.548 Y113.748 E.04101
G1 X118.515 Y114.551 E.04102
G1 X117.75 Y114.689 E.02437
G1 X82.25 Y114.689 E1.11308
G1 X81.002 Y114.298 E.04101
G1 X80.199 Y113.265 E.04102
G1 X80.061 Y112.5 E.02437
G1 X80.061 Y110.83 E.05236
;WIPE_START
G1 F8640
G1 X80.061 Y110.77 E-.01385
G1 X80.061 Y107.365 E-.78615
;WIPE_END
G1 Z.8 F720
; printing object Untitled v1.stl id:0 copy 0
G1 X102.882 Y111.868 F10800
G1 Z.4 F720
G1 E.8 F2100
M204 S800
;TYPE:Perimeter
;WIDTH:0.449999
G1 F2383.498
G1 X102.882 Y88.132 E.80343
G1 X117.118 Y88.132 E.48187
G1 F2700
G1 X117.118 Y111.868 E.80343
G1 F2383.498
G1 X102.942 Y111.868 E.47984
M204 S1000
G1 X102.475 Y112.275 F10800
M204 S800
;TYPE:External perimeter
G1 F1500
G1 X102.475 Y111.6 E.02285
G1 X102.475 Y88.4 E.78529
G1 X102.475 Y87.725 E.02285
G1 X103.15 Y87.725 E.02285
G1 X116.85 Y87.725 E.46373
G1 X117.525 Y87.725 E.02285
M73 Q10 S18
G1 X117.525 Y88.4 E.02285
M73 P10 R18
G1 X117.525 Y111.6 E.78529
G1 X117.525 Y112.275 E.02285
G1 X116.85 Y112.275 E.02285
G1 X103.15 Y112.275 E.46373
G1 X102.535 Y112.275 E.02082
M204 S1000
;WIPE_START
G1 F8640
G1 X102.475 Y112.275 E-.01385
G1 X102.475 Y111.6 E-.15586
G1 X102.475 Y108.87 E-.63029
;WIPE_END
G1 Z.8 F720
G1 X103.359 Y88.531 F10800
G1 Z.4 F720
G1 E.8 F2100
;TYPE:Solid infill
;WIDTH:0.548766
G1 F4800
G1 X103.314 Y88.487 E.00265
G1 X103.253 Y88.503 E.00265
G1 X103.237 Y88.564 E.00265
G1 X103.281 Y88.609 E.00265
G1 X103.343 Y88.593 E.00269
;WIDTH:0.449999
G1 X103.993 Y88.498 E.02224
G1 X103.182 Y89.315 E.03897
;WIDTH:0.41646
G1 X103.116 Y89.388 E.00306
;WIDTH:0.38292
G1 X103.045 Y89.369 E.00208
G1 X103.064 Y89.44 E.00208
G1 X103.105 Y89.429 E.0012
;WIDTH:0.449999
G1 X103.248 Y89.818 E.01403
G1 X104.568 Y88.498 E.06319
G1 X105.144 Y88.498 E.0195
G1 X103.248 Y90.394 E.09076
G1 X103.248 Y90.97 E.0195
G1 X105.72 Y88.498 E.11833
G1 X106.296 Y88.498 E.0195
G1 X103.248 Y91.546 E.14591
G1 X103.248 Y92.121 E.01946
G1 X106.871 Y88.498 E.17343
G1 X107.447 Y88.498 E.0195
G1 X103.248 Y92.697 E.201
G1 X103.248 Y93.273 E.0195
G1 X108.023 Y88.498 E.22858
G1 X108.598 Y88.498 E.01946
G1 X103.248 Y93.848 E.2561
G1 X103.248 Y94.424 E.0195
G1 X109.174 Y88.498 E.28367
G1 X109.75 Y88.498 E.0195
G1 X103.248 Y95 E.31125
G1 X103.248 Y95.575 E.01946
G1 X110.325 Y88.498 E.33877
G1 X110.901 Y88.498 E.0195
G1 X103.248 Y96.151 E.36634
G1 X103.248 Y96.727 E.0195
G1 X111.477 Y88.498 E.39392
G1 X112.053 Y88.498 E.0195
G1 X103.248 Y97.303 E.42149
G1 X103.248 Y97.878 E.01946
G1 X112.628 Y88.498 E.44901
G1 X113.204 Y88.498 E.0195
G1 X103.248 Y98.454 E.47659
G1 X103.248 Y99.03 E.0195
G1 X113.78 Y88.498 E.50416
G1 X114.355 Y88.498 E.01946
G1 X103.248 Y99.605 E.53169
G1 X103.248 Y100.181 E.0195
G1 X114.931 Y88.498 E.55926
G1 X115.507 Y88.498 E.0195
G1 X103.248 Y100.757 E.58683
G1 X103.248 Y101.332 E.01946
G1 X116.082 Y88.498 E.61436
G1 X116.658 Y88.498 E.0195
G1 X103.248 Y101.908 E.64193
G1 X103.248 Y102.484 E.0195
G1 X116.752 Y88.981 E.6464
G1 X116.752 Y89.556 E.01946
G1 X103.248 Y103.059 E.6464
G1 X103.248 Y103.635 E.0195
G1 X116.752 Y90.132 E.6464
G1 X116.752 Y90.708 E.0195
G1 X103.248 Y104.211 E.6464
G1 X103.248 Y104.787 E.0195
G1 X116.752 Y91.283 E.64643
G1 X116.752 Y91.859 E.0195
G1 X103.248 Y105.362 E.6464
G1 X103.248 Y105.938 E.0195
G1 X116.752 Y92.435 E.6464
G1 X116.752 Y93.011 E.0195
G1 X103.248 Y106.514 E.6464
G1 X103.248 Y107.089 E.01946
G1 X116.752 Y93.586 E.6464
G1 X116.752 Y94.162 E.0195
G1 X103.248 Y107.665 E.6464
G1 X103.248 Y108.241 E.0195
G1 X116.752 Y94.738 E.6464
G1 X116.752 Y95.313 E.01946
G1 X103.248 Y108.816 E.6464
G1 X103.248 Y109.392 E.0195
G1 X116.752 Y95.889 E.6464
G1 X116.752 Y96.465 E.0195
G1 X103.248 Y109.968 E.6464
G1 X103.248 Y110.544 E.0195
G1 X116.752 Y97.04 E.64643
